report_00007_2020-12-11T15:55:29.892Z/first-contentful-paint/comparison/line/0_vs_1.svg

<svg width="640" height="500" xmlns="http://www.w3.org/2000/svg" xmlns:xlink="http://www.w3.org/1999/xlink"><path fill="#fff" d="M0 0h640v500H0z"/><defs><path id="d" stroke-width=".222" stroke="currentColor" d="M-1-1h2v2h-2z"/><path id="b" stroke-width=".222" stroke="currentColor" d="M0-1.33l-1.33 2h2.66z"/><path id="f" stroke-width=".222" stroke="currentColor" d="M0 1.33L1.265.411.782-1.067l-1.564-.009-.483 1.487z"/><use xlink:href="#b" id="c" stroke="currentColor" transform="rotate(180)"/><use xlink:href="#d" id="e" stroke="currentColor" transform="rotate(45)"/><circle id="a" stroke-width=".222" stroke="currentColor" cx="0" cy="0" r="1"/></defs><g fill="none" color="#000" stroke="currentColor"><path stroke="#000" d="M62.2 425.7h9m543.8 0h-9"/><text transform="translate(53.9 429.6)" stroke="none" fill="#000" font-family="Arial" font-size="12" text-anchor="end"><tspan>600</tspan></text></g><g fill="none" color="#000" stroke="currentColor"><path stroke="#000" d="M62.2 381.5h9m543.8 0h-9"/><text transform="translate(53.9 385.4)" stroke="none" fill="#000" font-family="Arial" font-size="12" text-anchor="end"><tspan>800</tspan></text></g><g fill="none" color="#000" stroke="currentColor"><path stroke="#000" d="M62.2 337.2h9m543.8 0h-9"/><text transform="translate(53.9 341.1)" stroke="none" fill="#000" font-family="Arial" font-size="12" text-anchor="end"><tspan>1000</tspan></text></g><g fill="none" color="#000" stroke="currentColor"><path stroke="#000" d="M62.2 293h9m543.8 0h-9"/><text transform="translate(53.9 296.9)" stroke="none" fill="#000" font-family="Arial" font-size="12" text-anchor="end"><tspan>1200</tspan></text></g><g fill="none" color="#000" stroke="currentColor"><path stroke="#000" d="M62.2 248.8h9m543.8 0h-9"/><text transform="translate(53.9 252.7)" stroke="none" fill="#000" font-family="Arial" font-size="12" text-anchor="end"><tspan>1400</tspan></text></g><g fill="none" color="#000" stroke="currentColor"><path stroke="#000" d="M62.2 204.5h9m543.8 0h-9"/><text transform="translate(53.9 208.4)" stroke="none" fill="#000" font-family="Arial" font-size="12" text-anchor="end"><tspan>1600</tspan></text></g><g fill="none" color="#000" stroke="currentColor"><path stroke="#000" d="M62.2 160.3h9m543.8 0h-9"/><text transform="translate(53.9 164.2)" stroke="none" fill="#000" font-family="Arial" font-size="12" text-anchor="end"><tspan>1800</tspan></text></g><g fill="none" color="#000" stroke="currentColor"><path stroke="#000" d="M62.2 116.1h9m543.8 0h-9"/><text transform="translate(53.9 120)" stroke="none" fill="#000" font-family="Arial" font-size="12" text-anchor="end"><tspan>2000</tspan></text></g><g fill="none" color="#000" stroke="currentColor"><path stroke="#000" d="M62.2 71.8h9m543.8 0h-9"/><text transform="translate(53.9 75.7)" stroke="none" fill="#000" font-family="Arial" font-size="12" text-anchor="end"><tspan>2200</tspan></text></g><g fill="none" color="#000" stroke="currentColor"><path stroke="#000" d="M62.2 27.6h9m543.8 0h-9"/><text transform="translate(53.9 31.5)" stroke="none" fill="#000" font-family="Arial" font-size="12" text-anchor="end"><tspan>2400</tspan></text></g><g fill="none" color="#000" stroke="currentColor"><path stroke="#000" d="M62.2 428v-9m0-400.9v9"/><text transform="translate(62.2 449.9)" stroke="none" fill="#000" font-family="Arial" font-size="12" text-anchor="middle"><tspan>0</tspan></text></g><g fill="none" color="#000" stroke="currentColor"><path stroke="#000" d="M118 428v-9m0-400.9v9"/><text transform="translate(118 449.9)" stroke="none" fill="#000" font-family="Arial" font-size="12" text-anchor="middle"><tspan>10</tspan></text></g><g fill="none" color="#000" stroke="currentColor"><path stroke="#000" d="M173.9 428v-9m0-400.9v9"/><text transform="translate(173.9 449.9)" stroke="none" fill="#000" font-family="Arial" font-size="12" text-anchor="middle"><tspan>20</tspan></text></g><g fill="none" color="#000" stroke="currentColor"><path stroke="#000" d="M229.7 428v-9m0-400.9v9"/><text transform="translate(229.7 449.9)" stroke="none" fill="#000" font-family="Arial" font-size="12" text-anchor="middle"><tspan>30</tspan></text></g><g fill="none" color="#000" stroke="currentColor"><path stroke="#000" d="M285.6 428v-9m0-400.9v9"/><text transform="translate(285.6 449.9)" stroke="none" fill="#000" font-family="Arial" font-size="12" text-anchor="middle"><tspan>40</tspan></text></g><g fill="none" color="#000" stroke="currentColor"><path stroke="#000" d="M341.4 428v-9m0-400.9v9"/><text transform="translate(341.4 449.9)" stroke="none" fill="#000" font-family="Arial" font-size="12" text-anchor="middle"><tspan>50</tspan></text></g><g fill="none" color="#000" stroke="currentColor"><path stroke="#000" d="M397.2 428v-9m0-400.9v9"/><text transform="translate(397.2 449.9)" stroke="none" fill="#000" font-family="Arial" font-size="12" text-anchor="middle"><tspan>60</tspan></text></g><g fill="none" color="#000" stroke="currentColor"><path stroke="#000" d="M453.1 428v-9m0-400.9v9"/><text transform="translate(453.1 449.9)" stroke="none" fill="#000" font-family="Arial" font-size="12" text-anchor="middle"><tspan>70</tspan></text></g><g fill="none" color="#000" stroke="currentColor"><path stroke="#000" d="M508.9 428v-9m0-400.9v9"/><text transform="translate(508.9 449.9)" stroke="none" fill="#000" font-family="Arial" font-size="12" text-anchor="middle"><tspan>80</tspan></text></g><g fill="none" color="#000" stroke="currentColor"><path stroke="#000" d="M564.7 428v-9m0-400.9v9"/><text transform="translate(564.7 449.9)" stroke="none" fill="#000" font-family="Arial" font-size="12" text-anchor="middle"><tspan>90</tspan></text></g><path stroke="#000" d="M62.2 18.1V428H615V18.1H62.2z" fill="none" color="#000"/><text transform="translate(279.8 467.9)" stroke="none" fill="#000" font-family="Arial" font-size="12" text-anchor="end" color="#000"><tspan>empty</tspan></text><path stroke="#9400D3" d="M288.1 464h42.2M62.2 417.7l5.6 2.3 5.6-.6 5.6-.6 5.5.6 5.6-.2 5.6.4 5.6-.2 5.6.2 5.6.4 5.5.1 5.6-.7h5.6l5.6-.9 5.6.7h5.6l5.5.2h5.6l5.6-.2 5.6.2h5.6l5.6.5 5.5-.5 5.6.1h5.6l5.6.2 5.6-.3h5.6l5.5-.2h5.6l5.6-.9 5.6.9h11.2l5.6-.9 5.5.9 5.6.7 5.6-.5 5.6.3 5.6-.3 5.6.3 5.5-.3 5.6.1 5.6-.3 5.6.5 5.6.2 5.6-.5h5.5l5.6-.6 5.6-1.2 5.6 2.3 5.6-.9h5.6l5.5-.7 5.6.5 5.6.7h5.6l5.6-.3 5.6.6 5.5-.3 5.6-.5 5.6.7 5.6-.3h5.6l5.6.3 5.5-.2 5.6.6 5.6-.4 5.6-.9 5.6.4 5.6.2 5.6.7 5.5-.7 5.6.1 5.6-.3 5.6.3h5.6l5.6.3 5.5-.6 5.6.2 5.6.7 5.6-.7 5.6.3 5.6-.5 5.5.5 5.6.1 5.6.2 5.6-.6 5.6.3 5.6-.2 5.5-.1h5.6l5.6.7 5.6-.9 5.6.3 5.6-.5 5.5.5 5.6.1 5.6.5 5.6-1.8" fill="none" color="#000"/><text transform="translate(279.8 485.9)" stroke="none" fill="#000" font-family="Arial" font-size="12" text-anchor="end" color="#000"><tspan>pages</tspan></text><path stroke="#009E73" d="M288.1 482h42.2M62.2 26l5.6 98.9 5.6.4 5.6-8 5.5 9.7 5.6-1.3 5.6.8 5.6-.9 5.6 1.6 5.6-.7 5.5 1.5 5.6-45.4 5.6 43.5 5.6 1.4 5.6-1 5.6-12.3 5.5 12 5.6 1 5.6.8 5.6-5 5.6 4.1 5.6.7 5.5-51.3 5.6 36.3 5.6 13.5 5.6 1.9 5.6-3.2 5.6.9 5.5 1.3 5.6.2 5.6-1.8 5.6 1 5.6.4 5.6.7 5.6-22.5 5.5 21.9 5.6.7 5.6-1.1 5.6-.6 5.6 1.2 5.6-1.6 5.5 2.1 5.6-2.5 5.6-13 5.6 14.6 5.6-17.5 5.6 15.3 5.5 2 5.6.7 5.6-1.2 5.6-34.4 5.6 34.1 5.6 2.2 5.5-1.7 5.6-1.9 5.6 3.6 5.6-52.8 5.6 50.4 5.6 1.1 5.5 1.4 5.6-17.8 5.6 17.6 5.6-.1 5.6-.8 5.6-1.7 5.5 2.5 5.6-.5 5.6.8 5.6-27.5 5.6 27.1 5.6-.1 5.6-.7 5.5-.3 5.6 1.2 5.6-.4h5.6l5.6-2.5 5.6 2.8 5.5-.5 5.6-24.8 5.6 22.9 5.6 1.6 5.6.7 5.6-1 5.5-.8 5.6-39.6 5.6 39.7h5.6l5.6 2.2 5.6-50.8 5.5 49.5 5.6-.5 5.6 1.7 5.6-1.7h5.6l5.6-13.5 5.5 13.8 5.6-.7 5.6 1.7 5.6-2.5" fill="none" color="#000"/><text transform="translate(479.7 467.9)" stroke="none" fill="#000" font-family="Arial" font-size="12" text-anchor="end" color="#000"><tspan>score p10=2336</tspan></text><path stroke="#56B4E9" d="M488 464h42.2M62.2 41.8H615" fill="none" color="#000"/><g><text transform="translate(479.7 485.9)" stroke="none" fill="#000" font-family="Arial" font-size="12" text-anchor="end" color="#000"><tspan>score median=4000</tspan></text><path stroke="#E69F00" d="M488 482h42.2" fill="none" color="#000"/></g><g fill="none" color="#000" stroke="currentColor"><path stroke="#000" d="M62.2 18.1V428H615V18.1H62.2z"/></g></svg>

<?xml version="1.0" encoding="utf-8"  standalone="no"?>
<svg 
 width="640" height="500"
 viewBox="0 0 640 500"
 xmlns="http://www.w3.org/2000/svg"
 xmlns:xlink="http://www.w3.org/1999/xlink"
>

<title>Gnuplot</title>
<desc>Produced by GNUPLOT 5.4 patchlevel 0 </desc>

<g id="gnuplot_canvas">

<rect x="0" y="0" width="640" height="500" fill="#ffffff"/>
<defs>

	<circle id='gpDot' r='0.5' stroke-width='0.5' stroke='currentColor'/>
	<path id='gpPt0' stroke-width='0.222' stroke='currentColor' d='M-1,0 h2 M0,-1 v2'/>
	<path id='gpPt1' stroke-width='0.222' stroke='currentColor' d='M-1,-1 L1,1 M1,-1 L-1,1'/>
	<path id='gpPt2' stroke-width='0.222' stroke='currentColor' d='M-1,0 L1,0 M0,-1 L0,1 M-1,-1 L1,1 M-1,1 L1,-1'/>
	<rect id='gpPt3' stroke-width='0.222' stroke='currentColor' x='-1' y='-1' width='2' height='2'/>
	<rect id='gpPt4' stroke-width='0.222' stroke='currentColor' fill='currentColor' x='-1' y='-1' width='2' height='2'/>
	<circle id='gpPt5' stroke-width='0.222' stroke='currentColor' cx='0' cy='0' r='1'/>
	<use xlink:href='#gpPt5' id='gpPt6' fill='currentColor' stroke='none'/>
	<path id='gpPt7' stroke-width='0.222' stroke='currentColor' d='M0,-1.33 L-1.33,0.67 L1.33,0.67 z'/>
	<use xlink:href='#gpPt7' id='gpPt8' fill='currentColor' stroke='none'/>
	<use xlink:href='#gpPt7' id='gpPt9' stroke='currentColor' transform='rotate(180)'/>
	<use xlink:href='#gpPt9' id='gpPt10' fill='currentColor' stroke='none'/>
	<use xlink:href='#gpPt3' id='gpPt11' stroke='currentColor' transform='rotate(45)'/>
	<use xlink:href='#gpPt11' id='gpPt12' fill='currentColor' stroke='none'/>
	<path id='gpPt13' stroke-width='0.222' stroke='currentColor' d='M0,1.330 L1.265,0.411 L0.782,-1.067 L-0.782,-1.076 L-1.265,0.411 z'/>
	<use xlink:href='#gpPt13' id='gpPt14' fill='currentColor' stroke='none'/>
	<filter id='textbox' filterUnits='objectBoundingBox' x='0' y='0' height='1' width='1'>
	  <feFlood flood-color='#FFFFFF' flood-opacity='1' result='bgnd'/>
	  <feComposite in='SourceGraphic' in2='bgnd' operator='atop'/>
	</filter>
	<filter id='greybox' filterUnits='objectBoundingBox' x='0' y='0' height='1' width='1'>
	  <feFlood flood-color='lightgrey' flood-opacity='1' result='grey'/>
	  <feComposite in='SourceGraphic' in2='grey' operator='atop'/>
	</filter>
</defs>
<g fill="none" color="#FFFFFF" stroke="black" stroke-width="1.00" stroke-linecap="butt" stroke-linejoin="miter">
</g>
<g fill="none" color="black" stroke="currentColor" stroke-width="1.00" stroke-linecap="butt" stroke-linejoin="miter">
	<path stroke='black'  d='M62.2,425.7 L71.2,425.7 M615.0,425.7 L606.0,425.7  '/>	<g transform="translate(53.9,429.6)" stroke="none" fill="black" font-family="Arial" font-size="12.00"  text-anchor="end">
		<text><tspan font-family="Arial" > 600</tspan></text>
	</g>
</g>
<g fill="none" color="black" stroke="currentColor" stroke-width="1.00" stroke-linecap="butt" stroke-linejoin="miter">
	<path stroke='black'  d='M62.2,381.5 L71.2,381.5 M615.0,381.5 L606.0,381.5  '/>	<g transform="translate(53.9,385.4)" stroke="none" fill="black" font-family="Arial" font-size="12.00"  text-anchor="end">
		<text><tspan font-family="Arial" > 800</tspan></text>
	</g>
</g>
<g fill="none" color="black" stroke="currentColor" stroke-width="1.00" stroke-linecap="butt" stroke-linejoin="miter">
	<path stroke='black'  d='M62.2,337.2 L71.2,337.2 M615.0,337.2 L606.0,337.2  '/>	<g transform="translate(53.9,341.1)" stroke="none" fill="black" font-family="Arial" font-size="12.00"  text-anchor="end">
		<text><tspan font-family="Arial" > 1000</tspan></text>
	</g>
</g>
<g fill="none" color="black" stroke="currentColor" stroke-width="1.00" stroke-linecap="butt" stroke-linejoin="miter">
	<path stroke='black'  d='M62.2,293.0 L71.2,293.0 M615.0,293.0 L606.0,293.0  '/>	<g transform="translate(53.9,296.9)" stroke="none" fill="black" font-family="Arial" font-size="12.00"  text-anchor="end">
		<text><tspan font-family="Arial" > 1200</tspan></text>
	</g>
</g>
<g fill="none" color="black" stroke="currentColor" stroke-width="1.00" stroke-linecap="butt" stroke-linejoin="miter">
	<path stroke='black'  d='M62.2,248.8 L71.2,248.8 M615.0,248.8 L606.0,248.8  '/>	<g transform="translate(53.9,252.7)" stroke="none" fill="black" font-family="Arial" font-size="12.00"  text-anchor="end">
		<text><tspan font-family="Arial" > 1400</tspan></text>
	</g>
</g>
<g fill="none" color="black" stroke="currentColor" stroke-width="1.00" stroke-linecap="butt" stroke-linejoin="miter">
	<path stroke='black'  d='M62.2,204.5 L71.2,204.5 M615.0,204.5 L606.0,204.5  '/>	<g transform="translate(53.9,208.4)" stroke="none" fill="black" font-family="Arial" font-size="12.00"  text-anchor="end">
		<text><tspan font-family="Arial" > 1600</tspan></text>
	</g>
</g>
<g fill="none" color="black" stroke="currentColor" stroke-width="1.00" stroke-linecap="butt" stroke-linejoin="miter">
	<path stroke='black'  d='M62.2,160.3 L71.2,160.3 M615.0,160.3 L606.0,160.3  '/>	<g transform="translate(53.9,164.2)" stroke="none" fill="black" font-family="Arial" font-size="12.00"  text-anchor="end">
		<text><tspan font-family="Arial" > 1800</tspan></text>
	</g>
</g>
<g fill="none" color="black" stroke="currentColor" stroke-width="1.00" stroke-linecap="butt" stroke-linejoin="miter">
	<path stroke='black'  d='M62.2,116.1 L71.2,116.1 M615.0,116.1 L606.0,116.1  '/>	<g transform="translate(53.9,120.0)" stroke="none" fill="black" font-family="Arial" font-size="12.00"  text-anchor="end">
		<text><tspan font-family="Arial" > 2000</tspan></text>
	</g>
</g>
<g fill="none" color="black" stroke="currentColor" stroke-width="1.00" stroke-linecap="butt" stroke-linejoin="miter">
	<path stroke='black'  d='M62.2,71.8 L71.2,71.8 M615.0,71.8 L606.0,71.8  '/>	<g transform="translate(53.9,75.7)" stroke="none" fill="black" font-family="Arial" font-size="12.00"  text-anchor="end">
		<text><tspan font-family="Arial" > 2200</tspan></text>
	</g>
</g>
<g fill="none" color="black" stroke="currentColor" stroke-width="1.00" stroke-linecap="butt" stroke-linejoin="miter">
	<path stroke='black'  d='M62.2,27.6 L71.2,27.6 M615.0,27.6 L606.0,27.6  '/>	<g transform="translate(53.9,31.5)" stroke="none" fill="black" font-family="Arial" font-size="12.00"  text-anchor="end">
		<text><tspan font-family="Arial" > 2400</tspan></text>
	</g>
</g>
<g fill="none" color="black" stroke="currentColor" stroke-width="1.00" stroke-linecap="butt" stroke-linejoin="miter">
	<path stroke='black'  d='M62.2,428.0 L62.2,419.0 M62.2,18.1 L62.2,27.1  '/>	<g transform="translate(62.2,449.9)" stroke="none" fill="black" font-family="Arial" font-size="12.00"  text-anchor="middle">
		<text><tspan font-family="Arial" > 0</tspan></text>
	</g>
</g>
<g fill="none" color="black" stroke="currentColor" stroke-width="1.00" stroke-linecap="butt" stroke-linejoin="miter">
	<path stroke='black'  d='M118.0,428.0 L118.0,419.0 M118.0,18.1 L118.0,27.1  '/>	<g transform="translate(118.0,449.9)" stroke="none" fill="black" font-family="Arial" font-size="12.00"  text-anchor="middle">
		<text><tspan font-family="Arial" > 10</tspan></text>
	</g>
</g>
<g fill="none" color="black" stroke="currentColor" stroke-width="1.00" stroke-linecap="butt" stroke-linejoin="miter">
	<path stroke='black'  d='M173.9,428.0 L173.9,419.0 M173.9,18.1 L173.9,27.1  '/>	<g transform="translate(173.9,449.9)" stroke="none" fill="black" font-family="Arial" font-size="12.00"  text-anchor="middle">
		<text><tspan font-family="Arial" > 20</tspan></text>
	</g>
</g>
<g fill="none" color="black" stroke="currentColor" stroke-width="1.00" stroke-linecap="butt" stroke-linejoin="miter">
	<path stroke='black'  d='M229.7,428.0 L229.7,419.0 M229.7,18.1 L229.7,27.1  '/>	<g transform="translate(229.7,449.9)" stroke="none" fill="black" font-family="Arial" font-size="12.00"  text-anchor="middle">
		<text><tspan font-family="Arial" > 30</tspan></text>
	</g>
</g>
<g fill="none" color="black" stroke="currentColor" stroke-width="1.00" stroke-linecap="butt" stroke-linejoin="miter">
	<path stroke='black'  d='M285.6,428.0 L285.6,419.0 M285.6,18.1 L285.6,27.1  '/>	<g transform="translate(285.6,449.9)" stroke="none" fill="black" font-family="Arial" font-size="12.00"  text-anchor="middle">
		<text><tspan font-family="Arial" > 40</tspan></text>
	</g>
</g>
<g fill="none" color="black" stroke="currentColor" stroke-width="1.00" stroke-linecap="butt" stroke-linejoin="miter">
	<path stroke='black'  d='M341.4,428.0 L341.4,419.0 M341.4,18.1 L341.4,27.1  '/>	<g transform="translate(341.4,449.9)" stroke="none" fill="black" font-family="Arial" font-size="12.00"  text-anchor="middle">
		<text><tspan font-family="Arial" > 50</tspan></text>
	</g>
</g>
<g fill="none" color="black" stroke="currentColor" stroke-width="1.00" stroke-linecap="butt" stroke-linejoin="miter">
	<path stroke='black'  d='M397.2,428.0 L397.2,419.0 M397.2,18.1 L397.2,27.1  '/>	<g transform="translate(397.2,449.9)" stroke="none" fill="black" font-family="Arial" font-size="12.00"  text-anchor="middle">
		<text><tspan font-family="Arial" > 60</tspan></text>
	</g>
</g>
<g fill="none" color="black" stroke="currentColor" stroke-width="1.00" stroke-linecap="butt" stroke-linejoin="miter">
	<path stroke='black'  d='M453.1,428.0 L453.1,419.0 M453.1,18.1 L453.1,27.1  '/>	<g transform="translate(453.1,449.9)" stroke="none" fill="black" font-family="Arial" font-size="12.00"  text-anchor="middle">
		<text><tspan font-family="Arial" > 70</tspan></text>
	</g>
</g>
<g fill="none" color="black" stroke="currentColor" stroke-width="1.00" stroke-linecap="butt" stroke-linejoin="miter">
	<path stroke='black'  d='M508.9,428.0 L508.9,419.0 M508.9,18.1 L508.9,27.1  '/>	<g transform="translate(508.9,449.9)" stroke="none" fill="black" font-family="Arial" font-size="12.00"  text-anchor="middle">
		<text><tspan font-family="Arial" > 80</tspan></text>
	</g>
</g>
<g fill="none" color="black" stroke="currentColor" stroke-width="1.00" stroke-linecap="butt" stroke-linejoin="miter">
	<path stroke='black'  d='M564.7,428.0 L564.7,419.0 M564.7,18.1 L564.7,27.1  '/>	<g transform="translate(564.7,449.9)" stroke="none" fill="black" font-family="Arial" font-size="12.00"  text-anchor="middle">
		<text><tspan font-family="Arial" > 90</tspan></text>
	</g>
</g>
<g fill="none" color="black" stroke="currentColor" stroke-width="1.00" stroke-linecap="butt" stroke-linejoin="miter">
</g>
<g fill="none" color="black" stroke="currentColor" stroke-width="1.00" stroke-linecap="butt" stroke-linejoin="miter">
	<path stroke='black'  d='M62.2,18.1 L62.2,428.0 L615.0,428.0 L615.0,18.1 L62.2,18.1 Z  '/></g>
<g fill="none" color="black" stroke="currentColor" stroke-width="1.00" stroke-linecap="butt" stroke-linejoin="miter">
</g>
	<g id="gnuplot_plot_1" ><title>empty</title>
<g fill="none" color="black" stroke="currentColor" stroke-width="1.00" stroke-linecap="butt" stroke-linejoin="miter">
	<g transform="translate(279.8,467.9)" stroke="none" fill="black" font-family="Arial" font-size="12.00"  text-anchor="end">
		<text><tspan font-family="Arial" >empty</tspan></text>
	</g>
</g>
<g fill="none" color="black" stroke="currentColor" stroke-width="1.00" stroke-linecap="butt" stroke-linejoin="miter">
	<path stroke='rgb(148,   0, 211)'  d='M288.1,464.0 L330.3,464.0 M62.2,417.7 L67.8,420.0 L73.4,419.4 L79.0,418.8 L84.5,419.4 L90.1,419.2
		L95.7,419.6 L101.3,419.4 L106.9,419.6 L112.5,420.0 L118.0,420.1 L123.6,419.4 L129.2,419.4 L134.8,418.5
		L140.4,419.2 L146.0,419.2 L151.5,419.4 L157.1,419.4 L162.7,419.2 L168.3,419.4 L173.9,419.4 L179.5,419.9
		L185.0,419.4 L190.6,419.5 L196.2,419.5 L201.8,419.7 L207.4,419.4 L213.0,419.4 L218.5,419.2 L224.1,419.2
		L229.7,418.3 L235.3,419.2 L240.9,419.2 L246.5,419.2 L252.1,418.3 L257.6,419.2 L263.2,419.9 L268.8,419.4
		L274.4,419.7 L280.0,419.4 L285.6,419.7 L291.1,419.4 L296.7,419.5 L302.3,419.2 L307.9,419.7 L313.5,419.9
		L319.1,419.4 L324.6,419.4 L330.2,418.8 L335.8,417.6 L341.4,419.9 L347.0,419.0 L352.6,419.0 L358.1,418.3
		L363.7,418.8 L369.3,419.5 L374.9,419.5 L380.5,419.2 L386.1,419.8 L391.6,419.5 L397.2,419.0 L402.8,419.7
		L408.4,419.4 L414.0,419.4 L419.6,419.7 L425.1,419.5 L430.7,420.1 L436.3,419.7 L441.9,418.8 L447.5,419.2
		L453.1,419.4 L458.7,420.1 L464.2,419.4 L469.8,419.5 L475.4,419.2 L481.0,419.5 L486.6,419.5 L492.2,419.8
		L497.7,419.2 L503.3,419.4 L508.9,420.1 L514.5,419.4 L520.1,419.7 L525.7,419.2 L531.2,419.7 L536.8,419.8
		L542.4,420.0 L548.0,419.4 L553.6,419.7 L559.2,419.5 L564.7,419.4 L570.3,419.4 L575.9,420.1 L581.5,419.2
		L587.1,419.5 L592.7,419.0 L598.2,419.5 L603.8,419.6 L609.4,420.1 L615.0,418.3  '/></g>
	</g>
	<g id="gnuplot_plot_2" ><title>pages</title>
<g fill="none" color="black" stroke="currentColor" stroke-width="1.00" stroke-linecap="butt" stroke-linejoin="miter">
	<g transform="translate(279.8,485.9)" stroke="none" fill="black" font-family="Arial" font-size="12.00"  text-anchor="end">
		<text><tspan font-family="Arial" >pages</tspan></text>
	</g>
</g>
<g fill="none" color="black" stroke="currentColor" stroke-width="1.00" stroke-linecap="butt" stroke-linejoin="miter">
	<path stroke='rgb(  0, 158, 115)'  d='M288.1,482.0 L330.3,482.0 M62.2,26.0 L67.8,124.9 L73.4,125.3 L79.0,117.3 L84.5,127.0 L90.1,125.7
		L95.7,126.5 L101.3,125.6 L106.9,127.2 L112.5,126.5 L118.0,128.0 L123.6,82.6 L129.2,126.1 L134.8,127.5
		L140.4,126.5 L146.0,114.2 L151.5,126.2 L157.1,127.2 L162.7,128.0 L168.3,123.0 L173.9,127.1 L179.5,127.8
		L185.0,76.5 L190.6,112.8 L196.2,126.3 L201.8,128.2 L207.4,125.0 L213.0,125.9 L218.5,127.2 L224.1,127.4
		L229.7,125.6 L235.3,126.6 L240.9,127.0 L246.5,127.7 L252.1,105.2 L257.6,127.1 L263.2,127.8 L268.8,126.7
		L274.4,126.1 L280.0,127.3 L285.6,125.7 L291.1,127.8 L296.7,125.3 L302.3,112.3 L307.9,126.9 L313.5,109.4
		L319.1,124.7 L324.6,126.7 L330.2,127.4 L335.8,126.2 L341.4,91.8 L347.0,125.9 L352.6,128.1 L358.1,126.4
		L363.7,124.5 L369.3,128.1 L374.9,75.3 L380.5,125.7 L386.1,126.8 L391.6,128.2 L397.2,110.4 L402.8,128.0
		L408.4,127.9 L414.0,127.1 L419.6,125.4 L425.1,127.9 L430.7,127.4 L436.3,128.2 L441.9,100.7 L447.5,127.8
		L453.1,127.7 L458.7,127.0 L464.2,126.7 L469.8,127.9 L475.4,127.5 L481.0,127.5 L486.6,125.0 L492.2,127.8
		L497.7,127.3 L503.3,102.5 L508.9,125.4 L514.5,127.0 L520.1,127.7 L525.7,126.7 L531.2,125.9 L536.8,86.3
		L542.4,126.0 L548.0,126.0 L553.6,128.2 L559.2,77.4 L564.7,126.9 L570.3,126.4 L575.9,128.1 L581.5,126.4
		L587.1,126.4 L592.7,112.9 L598.2,126.7 L603.8,126.0 L609.4,127.7 L615.0,125.2  '/></g>
	</g>
	<g id="gnuplot_plot_3" ><title>score p10=2336</title>
<g fill="none" color="black" stroke="currentColor" stroke-width="1.00" stroke-linecap="butt" stroke-linejoin="miter">
	<g transform="translate(479.7,467.9)" stroke="none" fill="black" font-family="Arial" font-size="12.00"  text-anchor="end">
		<text><tspan font-family="Arial" >score p10=2336</tspan></text>
	</g>
</g>
<g fill="none" color="black" stroke="currentColor" stroke-width="1.00" stroke-linecap="butt" stroke-linejoin="miter">
	<path stroke='rgb( 86, 180, 233)'  d='M488.0,464.0 L530.2,464.0 M62.2,41.8 L67.8,41.8 L73.4,41.8 L79.0,41.8 L84.5,41.8 L90.1,41.8
		L95.7,41.8 L101.3,41.8 L106.9,41.8 L112.5,41.8 L118.0,41.8 L123.6,41.8 L129.2,41.8 L134.8,41.8
		L140.4,41.8 L146.0,41.8 L151.5,41.8 L157.1,41.8 L162.7,41.8 L168.3,41.8 L173.9,41.8 L179.5,41.8
		L185.0,41.8 L190.6,41.8 L196.2,41.8 L201.8,41.8 L207.4,41.8 L213.0,41.8 L218.5,41.8 L224.1,41.8
		L229.7,41.8 L235.3,41.8 L240.9,41.8 L246.5,41.8 L252.1,41.8 L257.6,41.8 L263.2,41.8 L268.8,41.8
		L274.4,41.8 L280.0,41.8 L285.6,41.8 L291.1,41.8 L296.7,41.8 L302.3,41.8 L307.9,41.8 L313.5,41.8
		L319.1,41.8 L324.6,41.8 L330.2,41.8 L335.8,41.8 L341.4,41.8 L347.0,41.8 L352.6,41.8 L358.1,41.8
		L363.7,41.8 L369.3,41.8 L374.9,41.8 L380.5,41.8 L386.1,41.8 L391.6,41.8 L397.2,41.8 L402.8,41.8
		L408.4,41.8 L414.0,41.8 L419.6,41.8 L425.1,41.8 L430.7,41.8 L436.3,41.8 L441.9,41.8 L447.5,41.8
		L453.1,41.8 L458.7,41.8 L464.2,41.8 L469.8,41.8 L475.4,41.8 L481.0,41.8 L486.6,41.8 L492.2,41.8
		L497.7,41.8 L503.3,41.8 L508.9,41.8 L514.5,41.8 L520.1,41.8 L525.7,41.8 L531.2,41.8 L536.8,41.8
		L542.4,41.8 L548.0,41.8 L553.6,41.8 L559.2,41.8 L564.7,41.8 L570.3,41.8 L575.9,41.8 L581.5,41.8
		L587.1,41.8 L592.7,41.8 L598.2,41.8 L603.8,41.8 L609.4,41.8 L615.0,41.8  '/></g>
	</g>
	<g id="gnuplot_plot_4" ><title>score median=4000</title>
<g fill="none" color="black" stroke="currentColor" stroke-width="1.00" stroke-linecap="butt" stroke-linejoin="miter">
	<g transform="translate(479.7,485.9)" stroke="none"
